X:941
T:Ae' Fond Kiss #1
C:Joe Buchanan's Scottish Tome - Page 549.1
I:549 1
Z:Carl Allison
C:Robert Burns
R:Waltz
L:1/4
M:3/4
K:G
F2 F | (A2 B) | D2 A, | (B, D2) | B2 B | (d2 B) | A2 E | (F A2) |
(G2 B) | d2 D | D2 A, | (B, D2) | (F2 E) | F2 B | (A2 E) | (E F2) :|

